X: 1750
T: Sevdi Gönlüm Ey Melek-sîma Seni
C: Nikoğos Ağa
O: Turkey
F: http://compmusic.upf.edu/node/140
N: acemkurdi--sarki--agiraksak--sevdi_gonlum--nikogos_aga
N: makam= acemkurdi
N: form= sarki
N: usul= agiraksak = 9/4
M: 9/4
L: 1/16
K: C _B   
Q: 1/4=72
%%MIDI tuningsystem comma53
e2f4a2 g3a f3g e3f d3e c2d2 c2B2 A2G2  | \
w:  ARANAĞME  | 
A3B c2d2 c2_e2 d2c2 B3A G2B2 A3B c2d2 =e2g2  | 
w:   | 
e2f4a2 g3a f3g e3f d3e c2d2 c2B2 A2G2  | \
w:   | 
A3B c2d2 c2_e2 d2c2 B3A G2BA A6f2 =e2g2  | 
w:   | 
e2f4a2 g3a f3g e3f d3e c2d2 c2B2 A2G2  | \
w:  ARANAĞME  | 
A3B c2d2 c2_e2 d2c2 B3A G2B2 A3B c2d2 =e2g2  | 
w:   | 
e2f4a2 g3a f3g e3f d3e c2d2 c2B2 A2G2  | \
w:   | 
A3B c2d2 c2_e2 d2c2 B3A G2BA A6c2 d2=e2  | 
w:   | 
f3g fef2 z2f4f2 {g}f2{g}e2 e2d2 d2{f}ed dcc_2/4B c4  | \
w:  *  *  *  *  *  Sev di  *  gön *  *  *  *  lüm   | 
d2e2 d2c2 d2e2 f2g2 a3g f2g2 e4 f8  | 
w:  ey  *  *  *  me *  *  *  lek  *  *  *  sî   | 
z2ef g2a2 g2b2 a2g2 fefg f2e2 e3d ^3/4c2d2 efed  | 
w:  sî *  *  *  *  *  *  *  *  *  *  *  *  *  mâ  *  *  *  se  | 
d8 z4 a4 g3f e2{a}gf f6e2 a2gf  | \
w:  ni  a  ca *  *  *  *  *  nım   SAZ  | 
f3g fef2 z2f4f2 {g}f2e2 e2d2 d2e2 d2e2 d2ef  | 
w:  *  *  *  *  *  Ben  ka *  dar  *  *  *  var   | 
edcd c2_2/4B2 z2cd c2d2 c2{f}_e2 d2c2 _B4 A8  | \
w:  *  *  *  *  *  *  mı  *  *  se ven  *  *  *  *  câ  | 
z2A4_3/4B2 c2_2/4Bc d4 {c}_BABc B2A2 G8 c2BA  | 
w:  câ *  *  *  *  *  *  *  *  *  *  *  *  nâ  se  | 
A8 z4 a4 g3f e2{a}gf f6e2 a2gf  | \
w:  ni  a  câ *  *  *  *  *  nım   SAZ  | 
f3g fef2 z2f4f2 {g}f2e2 e2d2 d2e2 d2e2 d2ef  | 
w:  *  *  *  *  *  Ben  ka *  dar  *  *  *  var   | 
edcd c2_2/4B2 z2cd c2d2 c2{f}_e2 d2c2 _B4 A8  | \
w:  *  *  *  *  *  *  mı  *  *  se ven  *  *  *  *  câ  | 
z2A4_3/4B2 c2_2/4Bc d4 {c}_BABc B2A2 G8 c2BA  | 
w:  câ *  *  *  *  *  *  *  *  *  *  *  *  nâ  se  | 
A8 z4 ^3/4f2g2 a3g fgab g2a4g2 c'2ba  | \
w:  ni   SAZ  | 
a3b aga2 z2g4{a}a2 a2c'2 b2a2 a2g2 f2e2 d2e2  | 
w:  SAZ *  *  *  *  İs *  te rim  *  *  *  bir   | 
c2dc B2A2 z2g2 ^3/4f2g2 a2_7/8ba g2a2 g4 a8  | \
w:  *  *  *  *  *  lah *  za cık *  *  *  *  ten   | 
z2ef g2a2 g2b2 a2g2 fefg f2e2 e3d ^c2d2 efed  | 
w:  ten *  *  *  *  *  *  *  *  *  *  *  *  *  ha  *  *  *  se  | 
d8 z4 a4 g3f e2{a}gf f6e2 a2gf  | \
w:  ni  a  câ *  *  *  *  *  nım   SAZ  | 
f3g fef2 z2f4f2 {g}f2e2 e2d2 d2e2 d2e2 d2ef  | 
w:  *  *  *  *  *  Ben  ka *  dar  *  *  *  var   | 
edcd c2_2/4B2 z2cd c2d2 c2{f}_e2 d2c2 _B4 A8  | \
w:  *  *  *  *  *  *  mı  *  *  se ven  *  *  *  *  câ  | 
z2A4_3/4B2 c2_2/4Bc d4 {c}_BABc B2A2 G8 c2BA  | 
w:  câ *  *  *  *  *  *  *  *  *  *  *  *  nâ  se  | 
A8 z4 a4 g3f e2{a}gf f6e2 a2gf  | \
w:  ni  a  câ *  *  *  *  *  nım   SAZ  | 
f3g fef2 z2f4f2 {g}f2e2 e2d2 d2e2 d2e2 d2ef  | 
w:  *  *  *  *  *  Ben  ka *  dar  *  *  *  var   | 
edcd c2_2/4B2 z2cd c2d2 c2{f}_e2 d2c2 _B4 A8  | \
w:  *  *  *  *  *  *  mı  *  *  se ven  *  *  *  *  câ  | 
z2A4_3/4B2 c2_2/4Bc d4 {c}_BABc B2A2 G8 c2BA  | 
w:  câ *  *  *  *  *  *  *  *  *  *  *  *  nâ  se  | 
A8 z4 d3c B3A G2BA A8 z4  | |


